X:472
T:The Monaghan Twig
M:C|
L:1/8
K:D
ed|:"A"cAAB cded|cAAG "Em"E2 ed|cAAB cded|"G"BAGB d2 ed|
"A"cAAB cded|cAAG "Em"E2 ed|cAAB cded|"G"BAGB d2 ed:|
|:"A"cdef gfed|cdef e2 A2|cdef "G"gfge|dBGB d2 ed|"A"B/c/d ed B/c/d ed|
cAAB cdef|"G"gfge "A"dfec|1 "G"dBGB d2 ed:|2 "G"dBGB d3 z|]
